src/next/cmd/sc_sendtomenu.svg

<svg height="16" width="16" xmlns="http://www.w3.org/2000/svg" xmlns:xlink="http://www.w3.org/1999/xlink"><linearGradient id="a" gradientUnits="userSpaceOnUse" x1="104.06811" x2="104" y1="40" y2="-127.999999"><stop offset="0" stop-color="#dee1e5"/><stop offset="1" stop-color="#fafafa"/></linearGradient><linearGradient id="b" gradientUnits="userSpaceOnUse" x1="48" x2="48" y1="240.12875" y2="-88"><stop offset="0"/><stop offset="1" stop-opacity="0"/></linearGradient><filter id="c" height="1.260078" width="1.266016" x="-.133008" y="-.130039"><feGaussianBlur stdDeviation="3.0342466"/></filter><linearGradient id="d" gradientUnits="userSpaceOnUse" x1="56.165081" x2="56.165081" y1="72.000854" y2="15.999757"><stop offset="0" stop-color="#d7dadd"/><stop offset="1" stop-color="#fff"/></linearGradient><g transform="matrix(-.125 0 0 .125 16 0)"><rect fill="url(#b)" height="127.7724" opacity=".859903" rx="8" width="95.931892" x="32.068104"/><path d="m40.068104-120h79.931896l.0681 112h-79.931892z" fill="url(#a)" transform="scale(1 -1)"/><path d="m36-1-32.7791094 41.876712h17.6558214l3.123288 11.780822h24l2.342466-11.780822h19.436643z" filter="url(#c)" transform="matrix(1.2807018 0 0 1.2807018 2 .280702)"/><path d="m48 0-35.050438 48h19.050438v24h32v-24h20.331141z" fill="url(#d)"/><g font-family="Liberation Sans" font-size="10.2079" transform="scale(-1 1)"><text x="-112.72604" y="79.900314"><tspan x="-112.72604" y="79.900314">blallall</tspan></text><text x="-111.5755" y="96.775002"><tspan x="-111.5755" y="96.775002">blallall</tspan></text><text x="-79.743713" y="96.007973"><tspan x="-79.743713" y="96.007973">blallall</tspan></text><text x="-112.34254" y="63.409153"><tspan x="-112.34254" y="63.409153">blallall</tspan></text></g></g></svg>

<?xml version="1.0" encoding="UTF-8" standalone="no"?>
<svg
   xmlns:dc="http://purl.org/dc/elements/1.1/"
   xmlns:cc="http://creativecommons.org/ns#"
   xmlns:rdf="http://www.w3.org/1999/02/22-rdf-syntax-ns#"
   xmlns:svg="http://www.w3.org/2000/svg"
   xmlns="http://www.w3.org/2000/svg"
   xmlns:sodipodi="http://sodipodi.sourceforge.net/DTD/sodipodi-0.dtd"
   xmlns:inkscape="http://www.inkscape.org/namespaces/inkscape"
   height="16"
   width="16"
   version="1.1"
   id="svg45"
   sodipodi:docname="sc_sendtomenu.svg"
   inkscape:version="0.92.4 (unknown)"
   inkscape:export-filename="/home/rizmut/Dokumen/Rizmut/Github/libreoffice-style-karasa-jaga/build/next/cmd/sc_sendtomenu.png"
   inkscape:export-xdpi="96"
   inkscape:export-ydpi="96">
  <metadata
     id="metadata51">
    <rdf:RDF>
      <cc:Work
         rdf:about="">
        <dc:format>image/svg+xml</dc:format>
        <dc:type
           rdf:resource="http://purl.org/dc/dcmitype/StillImage" />
        <dc:title></dc:title>
      </cc:Work>
    </rdf:RDF>
  </metadata>
  <defs
     id="defs49" />
  <sodipodi:namedview
     pagecolor="#ffffff"
     bordercolor="#666666"
     borderopacity="1"
     objecttolerance="10"
     gridtolerance="10"
     guidetolerance="10"
     inkscape:pageopacity="0"
     inkscape:pageshadow="2"
     inkscape:window-width="1366"
     inkscape:window-height="714"
     id="namedview47"
     showgrid="true"
     inkscape:zoom="20.85965"
     inkscape:cx="2.9562379"
     inkscape:cy="2.3530829"
     inkscape:window-x="0"
     inkscape:window-y="28"
     inkscape:window-maximized="1"
     inkscape:current-layer="g43">
    <inkscape:grid
       type="xygrid"
       id="grid858" />
  </sodipodi:namedview>
  <linearGradient
     id="a"
     gradientUnits="userSpaceOnUse"
     x1="104.06811"
     x2="104"
     y1="40"
     y2="-127.999999">
    <stop
       offset="0"
       stop-color="#dee1e5"
       id="stop2" />
    <stop
       offset="1"
       stop-color="#fafafa"
       id="stop4" />
  </linearGradient>
  <linearGradient
     id="b"
     gradientUnits="userSpaceOnUse"
     x1="48"
     x2="48"
     y1="240.12875"
     y2="-88">
    <stop
       offset="0"
       id="stop7" />
    <stop
       offset="1"
       stop-opacity="0"
       id="stop9" />
  </linearGradient>
  <filter
     id="c"
     height="1.260078"
     width="1.266016"
     x="-.133008"
     y="-.130039">
    <feGaussianBlur
       stdDeviation="3.0342466"
       id="feGaussianBlur12" />
  </filter>
  <linearGradient
     id="d"
     gradientUnits="userSpaceOnUse"
     x1="56.165081"
     x2="56.165081"
     y1="72.000854"
     y2="15.999757">
    <stop
       offset="0"
       stop-color="#d7dadd"
       id="stop15" />
    <stop
       offset="1"
       stop-color="#fff"
       id="stop17" />
  </linearGradient>
  <radialGradient
     id="e"
     cx="61.999996"
     cy="36.682388"
     fx="61.767456"
     fy="44.699276"
     gradientTransform="matrix(1.4082959 0 0 .78999908 13.13011 20.354281)"
     gradientUnits="userSpaceOnUse"
     r="38"
     spreadMethod="reflect">
    <stop
       offset="0"
       stop-color="#80b3ff"
       id="stop20" />
    <stop
       offset="1"
       stop-color="#254b99"
       id="stop22" />
  </radialGradient>
  <g
     transform="matrix(-0.125,0,0,0.125,16,0)"
     id="g43">
    <rect
       height="127.7724"
       rx="8"
       width="95.931892"
       y="0"
       id="rect25"
       x="32.068104"
       style="opacity:0.85990295;fill:url(#b)" />
    <path
       d="M 40.068104,-120 H 120 l 0.0681,112 H 40.136208 Z"
       transform="scale(1,-1)"
       id="path27"
       inkscape:connector-curvature="0"
       style="fill:url(#a)"
       sodipodi:nodetypes="ccccc" />
    <path
       d="M 36,-1 3.2208906,40.876712 H 20.876712 L 24,52.657534 h 24 l 2.342466,-11.780822 h 19.436643 z"
       transform="matrix(1.2807018,0,0,1.2807018,2,0.280702)"
       id="path29"
       inkscape:connector-curvature="0"
       style="filter:url(#c)" />
    <path
       d="M 48,0 12.949562,48 H 32 V 72 H 64 V 48 h 20.331141 z"
       id="path31"
       style="fill:url(#d)"
       inkscape:connector-curvature="0" />
    <text
       style="font-size:10.20790005px;font-family:'Liberation Sans';stroke-width:1"
       font-size="10.2079"
       x="-112.72604"
       y="79.900314"
       id="text899"
       transform="scale(-1,1)">
      <tspan
         style="stroke-width:1"
         x="-112.72604"
         y="79.900314"
         id="tspan897">blallall</tspan>
    </text>
    <text
       transform="scale(-1,1)"
       id="text1492"
       y="96.775002"
       x="-111.5755"
       font-size="10.2079"
       style="font-size:10.20790005px;font-family:'Liberation Sans';stroke-width:1">
      <tspan
         id="tspan1490"
         y="96.775002"
         x="-111.5755"
         style="stroke-width:1">blallall</tspan>
    </text>
    <text
       style="font-size:10.20790005px;font-family:'Liberation Sans';stroke-width:1"
       font-size="10.2079"
       x="-79.743713"
       y="96.007973"
       id="text1496"
       transform="scale(-1,1)">
      <tspan
         style="stroke-width:1"
         x="-79.743713"
         y="96.007973"
         id="tspan1494">blallall</tspan>
    </text>
    <text
       transform="scale(-1,1)"
       id="text1500"
       y="63.409153"
       x="-112.34254"
       font-size="10.2079"
       style="font-size:10.20790005px;font-family:'Liberation Sans';stroke-width:1">
      <tspan
         id="tspan1498"
         y="63.409153"
         x="-112.34254"
         style="stroke-width:1">blallall</tspan>
    </text>
  </g>
</svg>
